X: 89
T: O beate Sebastiane
C: Gaspar van Weerbeke
%%abc-version 2.0
%%abcx-abcm2ps-target-version 5.9.1 (29 Sep 2008)
%%abc-creator hum2abc beta
%%abcx-conversion-date 2022/03/06 13:05:54
%%abc-copyright Copyright 2008, Pavanello, Agnese
%%abc-edited-by Mair-Gruber, Roland
%%humdrum-veritas 4226631458
%%humdrum-veritas-data 2795145416
%%linebreak <none>
%%barnumbers 0
L: 1/4
M: 2/2
N: Derived from Gas0413-O_beate_Sebastiane.krn
%%staves [1 2 3 4]
V: 1 clef=treble
V: 2 clef=treble-8
V: 3 clef=treble-8
V: 4 clef=bass
K: F
[V:1] G4 | 
[V:2] d4 | 
[V:3] G4 | 
[V:4] G,,4 | 
[V:1] F4 | 
[V:2] d4 | 
[V:3] A4 | 
[V:4] D,4 | 
[V:1] B4 | 
[V:2] d4 | 
[V:3] G4 | 
[V:4] G,,4 | 
[V:1] A4 | 
[V:2] f4 | 
[V:3] F4 | 
[V:4] D,4 | 
[V:1] G2B2- | 
[V:2] d4 | 
[V:3] G4 | 
[V:4] G,,2G,2- | 
[V:1] BAG2- | 
[V:2] _e3d | 
[V:3] G4 | 
[V:4] G,F,_E,2- | 
[V:1] GF_E3/D/ | 
[V:2] c>Bc2- | 
[V:3] G4 | 
[V:4] E,D,C,B,, | 
[V:1] _E4 | 
[V:2] cBc2 | 
[V:3] G4 | 
[V:4] C,4 | 
[V:1] !fermata!D4 | 
[V:2] !fermata!F4 | 
[V:3] !fermata!B4 | 
[V:4] !fermata!B,,4 | 
[V:1] A2B2 | 
[V:2] z4 | 
[V:3] z4 | 
[V:4] z4 | 
[V:1] c2BG- | 
[V:2] A2B2 | 
[V:3] z4 | 
[V:4] z4 | 
[V:1] GA2F- | 
[V:2] cA2d- | 
[V:3] z4 | 
[V:4] z4 | 
[V:1] FE/D/E2 | 
[V:2] dc/B/c2 | 
[V:3] A4- | 
[V:4] z4 | 
[V:1] D4 | 
[V:2] z4 | 
[V:3] A2B2- | 
[V:4] D,4 | 
[V:1] z4 | 
[V:2] z4 | 
[V:3] B4 | 
[V:4] _E,2D,2 | 
[V:1] z4 | 
[V:2] z4 | 
[V:3] c3c- | 
[V:4] C,2F,3/G,/ | 
[V:1] z4 | 
[V:2] z4 | 
[V:3] cB/A/B2 | 
[V:4] A,2G,2 | 
[V:1] z4 | 
[V:2] z4 | 
[V:3] cA2d- | 
[V:4] F,2D,3/E,/ | 
[V:1] z2G2 | 
[V:2] z2G2 | 
[V:3] d^c/=B/^c2 | 
[V:4] F,G,E,2 | 
[V:1] F>G A/G//A//B- | 
[V:2] A3G | 
[V:3] d4- | 
[V:4] D,>E, F,/E,//F,//G,- | 
[V:1] B/A/B2A/G/ | 
[V:2] d2d3/e/ | 
[V:3] d4 | 
[V:4] G,/F,/G,2F,/E,/ | 
[V:1] FG2F/E/ | 
[V:2] fd2g- | 
[V:3] d4 | 
[V:4] D,G,,G,2- | 
[V:1] Dd>cd- | 
[V:2] gf/e/d2 | 
[V:3] B3A | 
[V:4] G,G,2G,,- | 
[V:1] d/c/B/A/B2 | 
[V:2] G/A/B/c<de/ | 
[V:3] G4 | 
[V:4] G,,2G,,2 | 
[V:1] A>Fc2 | 
[V:2] f>ec2 | 
[V:3] F2A2 | 
[V:4] D,>E,F,2 | 
[V:1] BG2A- | 
[V:2] z2c2 | 
[V:3] B2c2- | 
[V:4] G,2E,F,- | 
[V:1] AG/F/EG- | 
[V:2] A>BcG | 
[V:3] c4 | 
[V:4] F,E,/D,/C,2 | 
[V:1] G/F/D2B- | 
[V:2] g>f g/f/d- | 
[V:3] B2G2 | 
[V:4] G,,G,2F,/E,/ | 
[V:1] BA/G<^FE/ | 
[V:2] d/ e/fd3/c/ | 
[V:3] A4 | 
[V:4] D,>C,D,2 | 
[V:1] G4 | 
[V:2] d3_e- | 
[V:3] G4 | 
[V:4] G,,>A,,B,,C,- | 
[V:1] z4 | 
[V:2] e/d/c/B<AG/ | 
[V:3] z4 | 
[V:4] C,/B,,/A,,/G,,/D,2 | 
[V:1] z4 | 
[V:2] B2A2 | 
[V:3] G2F2 | 
[V:4] G,,2D,2 | 
[V:1] z4 | 
[V:2] z4 | 
[V:3] B3G | 
[V:4] B,,>C,D,_E, | 
[V:1] z4 | 
[V:2] z4 | 
[V:3] c3d- | 
[V:4] C,>D,E,F, | 
[V:1] z4 | 
[V:2] z4 | 
[V:3] dcde- | 
[V:4] D,E,D,G,- | 
[V:1] z2G2 | 
[V:2] z4 | 
[V:3] e/d/d2^c | 
[V:4] G,F,E,2 | 
[V:1] F2B2 | 
[V:2] z2G2 | 
[V:3] d2z2 | 
[V:4] D,2z2 | 
[V:1] cd2c/B/ | 
[V:2] F2B2 | 
[V:3] z4 | 
[V:4] z4 | 
[V:1] A2zB- | 
[V:2] c3d- | 
[V:3] z4 | 
[V:4] z4 | 
[V:1] BABc | 
[V:2] dcde | 
[V:3] z4 | 
[V:4] z4 | 
[V:1] Ad2^c | 
[V:2] f>ge2 | 
[V:3] z4 | 
[V:4] z4 | 
[V:1] d>cAB | 
[V:2] d2d3/c/ | 
[V:3] z2d2- | 
[V:4] D,>E,F,G,- | 
[V:1] c/B/A/G/F2 | 
[V:2] B2A2 | 
[V:3] d4 | 
[V:4] G,F,D,2 | 
[V:1] zG>FG | 
[V:2] c2d2 | 
[V:3] c2B2 | 
[V:4] z2G,2 | 
[V:1] FA>GF | 
[V:2] zc2B/A/ | 
[V:3] A>Bcd- | 
[V:4] A,F,2D, | 
[V:1] _E2DB- | 
[V:2] BcAB- | 
[V:3] dcd2 | 
[V:4] G,A,D,2 | 
[V:1] B/A/G/F/GF | 
[V:2] B/c<de/f- | 
[V:3] d/c/B/A/BA | 
[V:4] G,2G,,A,,- | 
[V:1] ABG3/F/ | 
[V:2] f/e/g/f<de/ | 
[V:3] cdB2 | 
[V:4] A,,G,,3 | 
[V:1] A2z2 | 
[V:2] fd>cB/A/ | 
[V:3] A2z2 | 
[V:4] D,>E,F,D,- | 
[V:1] z4 | 
[V:2] BA2G | 
[V:3] z4 | 
[V:4] D,C,B,,2 | 
[V:1] c3B | 
[V:2] A3B | 
[V:3] z4 | 
[V:4] A,,>B,,C,D, | 
[V:1] A2GG- | 
[V:2] c2G2 | 
[V:3] c3B | 
[V:4] C,F,E,G, | 
[V:1] GFGB | 
[V:2] d3_e | 
[V:3] A2G2 | 
[V:4] D,2G,,2 | 
[V:1] Ad>cB/A/ | 
[V:2] f2d2- | 
[V:3] F2GB- | 
[V:4] D,3G,- | 
[V:1] BG2^F | 
[V:2] d_ed2 | 
[V:3] BcA2 | 
[V:4] G,C,D,2 | 
[V:1] G2z2 | 
[V:2] B4 | 
[V:3] G2z2 | 
[V:4] G,,4 | 
[V:1] [M:3/2]z6 | 
[V:2] [M:3/2]z6 | 
[V:3] [M:3/2]F4G2 | 
[V:4] [M:3/2]D,4E,2 | 
[V:1] z6 | 
[V:2] z6 | 
[V:3] F2>G2A2 | 
[V:4] D,2>E,2C,2 | 
[V:1] z6 | 
[V:2] z6 | 
[V:3] B2>A2G2 | 
[V:4] B,,2_E,4 | 
[V:1] z6 | 
[V:2] z6 | 
[V:3] A2>B2cB | 
[V:4] F,2>_E,2C,2- | 
[V:1] z6 | 
[V:2] z6 | 
[V:3] G2>A2BG | 
[V:4] C,2_E,4 | 
[V:1] z6 | 
[V:2] z6 | 
[V:3] c2A2d2 | 
[V:4] _E,2F,3D, | 
[V:1] z6 | 
[V:2] z6 | 
[V:3] d2>c2BA | 
[V:4] F,2>_E,2D,C, | 
[V:1] z6 | 
[V:2] z6 | 
[V:3] B2A3G | 
[V:4] D,2C,4 | 
[V:1] z6 | 
[V:2] z6 | 
[V:3] G4^F2 | 
[V:4] B,,2A,,4 | 
[V:1] [M:2/2]z4 | 
[V:2] [M:2/2]d3e | 
[V:3] [M:2/2]G4 | 
[V:4] [M:2/2]G,,2G,2 | 
[V:1] A2AA- | 
[V:2] f2ff- | 
[V:3] z4 | 
[V:4] F,2D,2- | 
[V:1] AG/F/G2 | 
[V:2] fe/d/c2 | 
[V:3] z4 | 
[V:4] D,F,E,2 | 
[V:1] F>GAB- | 
[V:2] zf2f- | 
[V:3] d2dd- | 
[V:4] D,3B,, | 
[V:1] BA/G/A2 | 
[V:2] fe/d/f2 | 
[V:3] dc/B/c2 | 
[V:4] F,4 | 
[V:1] B2z2 | 
[V:2] zd2e | 
[V:3] B4 | 
[V:4] B,,3C, | 
[V:1] F2G2 | 
[V:2] f/e/d/c/Bd- | 
[V:3] z4 | 
[V:4] D,2G,,G,- | 
[V:1] B2A2 | 
[V:2] def2 | 
[V:3] z2F2 | 
[V:4] G,2D,2 | 
[V:1] zd2c/B/ | 
[V:2] ed2e | 
[V:3] G2B2 | 
[V:4] G,,2G,2 | 
[V:1] c2BA/G/ | 
[V:2] c2z2 | 
[V:3] A2zd- | 
[V:4] F,2G,3/F,//E,// | 
[V:1] F>GA2 | 
[V:2] B2A2 | 
[V:3] dc/B/c2 | 
[V:4] D,G,F,2 | 
[V:1] D2zd- | 
[V:2] G2d2- | 
[V:3] Bd>cB- | 
[V:4] G,2zG,,- | 
[V:1] dc/B/Ad | 
[V:2] def2 | 
[V:3] BA/G/AB- | 
[V:4] G,,/A,,/B,,/G,,/D,2 | 
[V:1] c/B/B2A | 
[V:2] e/d/d2c | 
[V:3] B/A/Bc2 | 
[V:4] B,,2F,2 | 
[V:1] B2z2 | 
[V:2] d2g2 | 
[V:3] B4 | 
[V:4] B,,2G,,2 | 
[V:1] A3B- | 
[V:2] f3_e/d/ | 
[V:3] z4 | 
[V:4] D,>E,F,G,- | 
[V:1] BA/G/F2- | 
[V:2] _e>cf2 | 
[V:3] z2A2- | 
[V:4] G,F,/E,/D,2- | 
[V:1] FG2F/G/ | 
[V:2] d3c/B/ | 
[V:3] AB2A/G/ | 
[V:4] D,G,2A, | 
[V:1] A3B- | 
[V:2] A2d2- | 
[V:3] F3G- | 
[V:4] D,3G,,- | 
[V:1] BABA- | 
[V:2] df>dd- | 
[V:3] GFGF | 
[V:4] G,,D,G,D, | 
[V:1] A/G/G2^F | 
[V:2] dcd2 | 
[V:3] G2A2 | 
[V:4] E,2D,2 | 
[V:1] G4 ||  
[V:2] d4 ||  
[V:3] G4 ||  
[V:4] G,,4 ||  
[V:1] z4 | 
[V:2] B4- | 
[V:3] z4 | 
[V:4] z4 | 
[V:1] G4 | 
[V:2] B2c2- | 
[V:3] z4 | 
[V:4] z4 | 
[V:1] A3F | 
[V:2] c2A2 | 
[V:3] z4 | 
[V:4] z4 | 
[V:1] G2F2 | 
[V:2] B2A2 | 
[V:3] z4 | 
[V:4] z4 | 
[V:1] B2AB- | 
[V:2] G2FG- | 
[V:3] z4 | 
[V:4] z4 | 
[V:1] BA/G/ A/G/F/E/ | 
[V:2] G/A/Bc/B/A/G/ | 
[V:3] z4 | 
[V:4] z4 | 
[V:1] F>EF2 | 
[V:2] A>GA2 | 
[V:3] z4 | 
[V:4] D,4 | 
[V:1] z4 | 
[V:2] z4 | 
[V:3] B4- | 
[V:4] _E,4 | 
[V:1] z4 | 
[V:2] z4 | 
[V:3] B2c2- | 
[V:4] D,2C,2 | 
[V:1] z4 | 
[V:2] z4 | 
[V:3] c2A2 | 
[V:4] F,4 | 
[V:1] z4 | 
[V:2] z4 | 
[V:3] B2AB- | 
[V:4] G,2F,G, | 
[V:1] z4 | 
[V:2] z4 | 
[V:3] BA/G/AB- | 
[V:4] D,>E,F,G,- | 
[V:1] z4 | 
[V:2] z4 | 
[V:3] BABc | 
[V:4] G,F,G,C, | 
[V:1] z4 | 
[V:2] z4 | 
[V:3] Ad2c/B/ | 
[V:4] D,>E,F,3/G,/ | 
[V:1] z2A2 | 
[V:2] z2d2 | 
[V:3] c2z2 | 
[V:4] E,2D,2 | 
[V:1] B2AB- | 
[V:2] d>efg- | 
[V:3] z4 | 
[V:4] z4 | 
[V:1] BA/G/AB- | 
[V:2] gf/e/d2 | 
[V:3] z4 | 
[V:4] z4 | 
[V:1] BABc | 
[V:2] gfge | 
[V:3] z4 | 
[V:4] z4 | 
[V:1] Ad2c/B/ | 
[V:2] f>gfe/d/ | 
[V:3] z4 | 
[V:4] z4 | 
[V:1] cAc/B/A/G/ | 
[V:2] cde2 | 
[V:3] z4 | 
[V:4] z2A,,2 | 
[V:1] F2zF- | 
[V:2] d2z2 | 
[V:3] d4- | 
[V:4] B,,3C, | 
[V:1] FB2A/G/ | 
[V:2] f4- | 
[V:3] d4 | 
[V:4] D,3E, | 
[V:1] A2B2 | 
[V:2] f2d3/e/ | 
[V:3] c2B2 | 
[V:4] F,2G,2 | 
[V:1] AA>GF/_E/ | 
[V:2] f>ec2 | 
[V:3] c2G2 | 
[V:4] F,2_E,2 | 
[V:1] FG2^F | 
[V:2] d2d2- | 
[V:3] A4 | 
[V:4] D,4 | 
[V:1] G3F | 
[V:2] d_e>dd- | 
[V:3] G4 | 
[V:4] G,,2G,2 | 
[V:1] E2D2 | 
[V:2] dcf_e/d/ | 
[V:3] z4 | 
[V:4] A,2D,2 | 
[V:1] G2FB- | 
[V:2] c>Bd2 | 
[V:3] G2B2- | 
[V:4] _E,2D,G,- | 
[V:1] BAG3/F//_E// | 
[V:2] z2_e2 | 
[V:3] Bc3 | 
[V:4] G,F,_E,2 | 
[V:1] F>G A/G//A//B- | 
[V:2] f4 | 
[V:3] d4 | 
[V:4] D,3B,, | 
[V:1] BABA/G/ | 
[V:2] f/d<f_e/d- | 
[V:3] c2dB- | 
[V:4] F,2B,,3/C,/ | 
[V:1] FG2^F | 
[V:2] dcdz | 
[V:3] BA/G/A2 | 
[V:4] D,_E,D,2 | 
[V:1] G4 | 
[V:2] d3e | 
[V:3] G4 | 
[V:4] G,,4 | 
[V:1] z4 | 
[V:2] f3e/d/ | 
[V:3] z4 | 
[V:4] D,3E, | 
[V:1] z4 | 
[V:2] c2f2 | 
[V:3] z4 | 
[V:4] F,3E,/D,/ | 
[V:1] z4 | 
[V:2] ed2c/B/ | 
[V:3] z4 | 
[V:4] C,B,,D,3/E,/ | 
[V:1] z4 | 
[V:2] AB>AG/F/ | 
[V:3] z4 | 
[V:4] F,D,>C,B,,/A,,/ | 
[V:1] z4 | 
[V:2] G2A2 | 
[V:3] z4 | 
[V:4] B,,2A,,2 | 
[V:1] F3G | 
[V:2] D2z2 | 
[V:3] A4 | 
[V:4] z2D,2- | 
[V:1] A2B2 | 
[V:2] d3e | 
[V:3] A2G2 | 
[V:4] D,2G,2 | 
[V:1] A2d2- | 
[V:2] f2d2 | 
[V:3] A3/G//A//B2- | 
[V:4] F,2G,2 | 
[V:1] dc/B/A2 | 
[V:2] z4 | 
[V:3] BA/B/c2- | 
[V:4] D,2F,2 | 
[V:1] cB2A- | 
[V:2] z4 | 
[V:3] cd2c | 
[V:4] E,D,G,A, | 
[V:1] AG/F/G2 | 
[V:2] zd2d | 
[V:3] A2B2 | 
[V:4] F,D,G,2 | 
[V:1] A4 | 
[V:2] d4 | 
[V:3] A2z2 | 
[V:4] D,2z2 | 
[V:1] z4 | 
[V:2] A2z2 | 
[V:3] d4- | 
[V:4] D,4 | 
[V:1] z4 | 
[V:2] A4 | 
[V:3] d4 | 
[V:4] D,2D,2- | 
[V:1] A4 | 
[V:2] A2A2 | 
[V:3] d2d2 | 
[V:4] D,2D,2- | 
[V:1] A2A2 | 
[V:2] zd2c/B/ | 
[V:3] zd3- | 
[V:4] D,2D,3/E,/ | 
[V:1] z2zd- | 
[V:2] A2Gg | 
[V:3] dcB2 | 
[V:4] F,2G,2 | 
[V:1] dcBc/B/ | 
[V:2] f2gz | 
[V:3] A2GF | 
[V:4] D,F,zF, | 
[V:1] A/G/G2^F | 
[V:2] d_ed2 | 
[V:3] BcA2 | 
[V:4] G,C,D,2 | 
[V:1] !fermata!G2z2 | 
[V:2] !fermata!d2z2 | 
[V:3] !fermata!G2z2 | 
[V:4] !fermata!G,,2z2 | 
[V:1] G4 | 
[V:2] d4- | 
[V:3] B4 | 
[V:4] G,4 | 
[V:1] F4 | 
[V:2] d4 | 
[V:3] A4 | 
[V:4] D,4 | 
[V:1] [M:3/2]B4B2 | 
[V:2] [M:3/2]g4g2- | 
[V:3] [M:3/2]G4B2- | 
[V:4] [M:3/2]_E,4E,2- | 
[V:1] G2A4 | 
[V:2] gfe4 | 
[V:3] B2c4 | 
[V:4] E,D,C,4 | 
[V:1] B4A2- | 
[V:2] f6- | 
[V:3] d4c2 | 
[V:4] B,,4F,2- | 
[V:1] A2G4 | 
[V:2] f2d3c | 
[V:3] A2B4 | 
[V:4] F,2G,4 | 
[V:1] [M:2/2]!fermata!^F4 | 
[V:2] [M:2/2]!fermata!d4 | 
[V:3] [M:2/2]!fermata!A4 | 
[V:4] [M:2/2]!fermata!D,4 | 
[V:1] A2B2 | 
[V:2] d2d3/e/ | 
[V:3] z4 | 
[V:4] D,2G,2 | 
[V:1] ABc/B/A/G/ | 
[V:2] f3/e//d//c3/B/ | 
[V:3] z2A2 | 
[V:4] F,G,A,/G,/F,/E,/ | 
[V:1] F2zF- | 
[V:2] d2cd | 
[V:3] B2AB | 
[V:4] D,>E,F,B,, | 
[V:1] FGA2 | 
[V:2] cd>ef- | 
[V:3] c/B/A/G/F2- | 
[V:4] F,>E,D,2- | 
[V:1] AB>Ad- | 
[V:2] f/ e/d/>B/d3/e/ | 
[V:3] FG2B | 
[V:4] D,G,,G,2 | 
[V:1] d/c/B/A/BA- | 
[V:2] f/e/d/c/Bc | 
[V:3] Ad2c- | 
[V:4] F,G,2A, | 
[V:1] A/G/G2^F | 
[V:2] Ad>cd | 
[V:3] c/B/GA2 | 
[V:4] F,G,D,2 | 
[V:1] G4- | 
[V:2] _e2d3/c/ | 
[V:3] G4- | 
[V:4] G,,4- | 
[V:1] G4 |]  
[V:2] d2d2 |]  
[V:3] G4 |]  
[V:4] G,,4 |]  


